desktop-mac-dashboard.svg

<svg fill="currentColor" viewBox="0 0 24 24"><path d="M21 14V4H3v10zm0-12a2 2 0 0 1 2 2v12a2 2 0 0 1-2 2h-7l2 3v1H8v-1l2-3H3a2 2 0 0 1-2-2V4c0-1.11.89-2 2-2zM4 5h11v5H4zm12 0h4v2h-4zm4 3v5h-4V8zM4 11h5v2H4zm6 0h5v2h-5z"/></svg>

<svg  viewBox="0 0 24 24" fill="currentColor"><path  d="M21,14V4H3V14H21M21,2A2,2 0 0,1 23,4V16A2,2 0 0,1 21,18H14L16,21V22H8V21L10,18H3C1.89,18 1,17.1 1,16V4C1,2.89 1.89,2 3,2H21M4,5H15V10H4V5M16,5H20V7H16V5M20,8V13H16V8H20M4,11H9V13H4V11M10,11H15V13H10V11Z"/></svg>
